!!!OTL: Die Mordeltern
!!!OTL-incipit:Es waren auch zween Bauernsoehn',
!!!ARE: Europa, Mitteleuropa, Deutschland (BRD), Baden
!!!YOR: 4, S. 310
!!    1902 gedruckt in Karlsruhe
!!!SCT: Q0085T
!!!TXL: @@DE
!!!YEM: Copyright 1995, estate of Helmut Schaffrath.
**kern	**text
*ICvox	*
!! Mixed meters:  3/4; 2/4
*M3/4	*
*k[f#]	*
*G:	*
!LO:TX:a:t=Langsam	!
!LO:TX:a:t=123 Baden	!
{8d	Es
=1	=1
8d	wa-
8g	-ren
4.g	auch
8g	ʒween
=2	=2
8f#	Bau-
8g	-ern-
4.a}	-ſöhn',
{8g	die
=3	=3
8f#	hat-
8g	-ten
4a	Luſt
4a	in
=4	=4
8b	Krieg
16bL	ʒu
16ddJ	.
8b}	gehn,
{16gL	ʒu
16aJ	.
8b	ei'm
8b	Sol-
=5	=5
*M2/4	*
(8.ddL	-da-
16ccJ	.
8b)	.
(8bq	.
8dd)	-ten-
=6	=6
*M3/4	*
4a	-le-
8g}	-ben,
{16gL	ʒu
16aJ	.
8b	ei'm
8b	Sol-
=7	=7
*M2/4	*
(8.ddL	-da-
16ccJ	.
8b)	.
(8bq	.
8dd)	-ten-
=8	=8
4a	-le-
8g}	-ben.
==	==
!!!AGN: Ballade, Habgier, Mord, Reue, Selbstmord
!! Verzierungen (Nachschlaege) in den letzten  Zeilen.
!!!ONB: ESAC (Essen Associative Code) Database: BALLADE
!!!AMT: irregular
!!!AIN: vox
!!!EED: Helmut Schaffrath
!!!EEV: 1.0
!!!source: Deutsche Volkslieder mit ihren Melodien. Herausgegeben vom Deutschen Volksliedarchiv. Vierter Band. Berlin 1959.
!!!page: 310
!!!ENC: Anna Maria Matuszewska
!!!EEV: 2025/02/25
*-	*-
